X: 91
T:La Mourolliado
C:MCTB 1/42
M:3/8
L:1/8
K:C
eee|fed|dc2|eee|fed|g3:|\
|:cde|d2c/B/|AG2|cde|fed|1 g3:|2 c3||
